X:10
T:Big Road to Sligo, The  
T:Tar Road to Sligo 
B:CRE1.033 (Bothar Mor go Sligeach)
F:file ID: cre.1/010big_road
S:Sonny Brogan
M:6/8
Q:160
R:jig
K:D
d/e/|fdB Bcd|ecA BAG|FAA ABc|dcd ede|
fdB Bcd|ecA BAG|FAA Aag|fdd d2:|
B|"9"Aff fef|gfg efg|afd dcd|Bed cBd|
Aff fef|gfg efg|afd bge|edc dcB|
"17"Aff Aff|gfg efg|afd dcd|Bed cBA|
fdB gec|afd bge|aga bge|edc Hd3|]

%%%

